X: 681
T: Ba tianqiao
%%abc-version 2.0
%%abcx-abcm2ps-target-version 5.9.1 (29 Sep 2008)
%%abc-creator hum2abc beta
%%abcx-conversion-date 2013/10/02 07:52:30
%%abc-edited-by Helmut Schaffrath
%%humdrum-veritas 2574930363
%%humdrum-veritas-data 2817802961
%%continueall 1
%%barnumbers 0
L: 1/8
M: 2/4
K: Eb
G G/ e/ g G [I:setbarnb 1]| 
c/ e/ GB2 | 
c e c e | 
G/ B/ c/ e/B2 | 
z e c e | 
G> e c B | 
zE2F | 
G/ B/ G/ D/ F F | 
z B B/ G/ F | 
G> F D C/ C/ | 
E2F G | 
F E C/ E/ B, | 
C4 |]  



